N1 (START GCODE)
N2 %1234 (PROGRAM START)
N3 M60 (START CSV RECORDING)
N4 ( FEEDSTOCK MATERIAL: AL6061 T6511 1/2)
N5 (SUBSTRATE MATERIAL:AL6061)
N6 G54
N7 ( TOOL DATA : 9999101,FLAT XX-CHAMFER SN: S-501-R1 )
N8 G700
N9 G00 (INTERPOLATION MODE: LINEAR, MAX VEL IGNORING PROGRAMMED VEL)
N10 G53 (DEACTIVATES ANY ZERO-OFFSET-SHIFT TRANSLATION)
N11 G17 (SELECT XY-PLANE AS WORKING PLANE)
N12 
N13 (MACHINE-RUNNING SYNTAX N12-N24)
N14 /0 M34 S9500 (CONTINUOUS FEED START: IPM or MM/MINx10, M35 STOPS)
N15 /0 M08 (Tool cooling on) 
N16 M40 S3 (Tool Temp PID S3 for Tool, S2 for K1) 
N17 /0 M06 S200 (START SPINDLE W/ SETPOINT OF S:RPM)
N18 M40 S3 (TOOL TEMP PID: S3 FOR TOOL, S2 FOR K1) 
N19 M71 S45 (Kp X100) 
N20 M72 S11 (Tn X10) 
N21 M73 S3 (Tv X10) 
N22 M74 S70 (Td  X10) 
N23 M75 S300 (PID min rpm) 
N24 M76 S450 (PID max rpm) 
N25 /0 M41 S475 (Set PID setpoint) 
N26 /0 M43 S440 (Hold until temp is reached)  
N27 G54
N28 G90 (Absolute movement)
N29 G71
N30 
N31 (BUILD START)
N32 (Layer 0)
N33 /0 M34 S4200
N34 G1 X49.333 Y-80.950 Z2.001 F889.800
N35 G1 X49.333 Y-48.570
N36 G1 X49.333 Y-16.190
N37 G1 X49.333 Y16.190
N38 G1 X49.333 Y48.570
N39 G1 X49.333 Y80.950
N40 /0 M34 S3500
N41 G1 X17.585 Y80.950
N42 G1 X17.585 Y48.570
N43 G1 X17.585 Y16.190
N44 G1 X17.585 Y-16.190
N45 G1 X17.585 Y-48.570
N46 G1 X17.585 Y-80.950
N47 G1 X-14.164 Y-80.950
N48 G1 X-14.164 Y-48.570
N49 G1 X-14.164 Y-16.190
N50 G1 X-14.164 Y16.190
N51 G1 X-14.164 Y48.570
N52 G1 X-14.164 Y80.950
N53 G1 X-45.913 Y80.950
N54 G1 X-45.913 Y48.570
N55 G1 X-45.913 Y16.190
N56 G1 X-45.913 Y-16.190
N57 G1 X-45.913 Y-48.570
N58 G1 X-45.913 Y-80.950
N59 (Layer 1)
N60 /0 M34 S4200
N61 G0 X-45.913 Y-80.950 Z4.000
N62 G1 X-45.913 Y-48.570
N63 G1 X-45.913 Y-16.190
N64 G1 X-45.913 Y16.190
N65 G1 X-45.913 Y48.570
N66 G1 X-45.913 Y80.950
N67 /0 M34 S3500
N68 G1 X-14.164 Y80.950
N69 G1 X-14.164 Y48.570
N70 G1 X-14.164 Y16.190
N71 G1 X-14.164 Y-16.190
N72 G1 X-14.164 Y-48.570
N73 G1 X-14.164 Y-80.950
N74 G1 X17.585 Y-80.950
N75 G1 X17.585 Y-48.570
N76 G1 X17.585 Y-16.190
N77 G1 X17.585 Y16.190
N78 G1 X17.585 Y48.570
N79 G1 X17.585 Y80.950
N80 G1 X49.333 Y80.950
N81 G1 X49.333 Y48.570
N82 G1 X49.333 Y16.190
N83 G1 X49.333 Y-16.190
N84 G1 X49.333 Y-48.570
N85 G1 X49.333 Y-80.950
N86 (Layer 2)
N87 /0 M34 S4200
N88 G0 X49.333 Y-80.950 Z6.000
N89 G1 X49.333 Y-48.570
N90 G1 X49.333 Y-16.190
N91 G1 X49.333 Y16.190
N92 G1 X49.333 Y48.570
N93 G1 X49.333 Y80.950
N94 /0 M34 S3500
N95 G1 X17.585 Y80.950
N96 G1 X17.585 Y48.570
N97 G1 X17.585 Y16.190
N98 G1 X17.585 Y-16.190
N99 G1 X17.585 Y-48.570
N100 G1 X17.585 Y-80.950
N101 G1 X-14.164 Y-80.950
N102 G1 X-14.164 Y-48.570
N103 G1 X-14.164 Y-16.190
N104 G1 X-14.164 Y16.190
N105 G1 X-14.164 Y48.570
N106 G1 X-14.164 Y80.950
N107 G1 X-45.913 Y80.950
N108 G1 X-45.913 Y48.570
N109 G1 X-45.913 Y16.190
N110 G1 X-45.913 Y-16.190
N111 G1 X-45.913 Y-48.570
N112 G1 X-45.913 Y-80.950
N113 (Layer 3)
N114 /0 M34 S4200
N115 G0 X-45.913 Y-80.950 Z8.000
N116 G1 X-45.913 Y-48.570
N117 G1 X-45.913 Y-16.190
N118 G1 X-45.913 Y16.190
N119 G1 X-45.913 Y48.570
N120 G1 X-45.913 Y80.950
N121 /0 M34 S3500
N122 G1 X-14.164 Y80.950
N123 G1 X-14.164 Y48.570
N124 G1 X-14.164 Y16.190
N125 G1 X-14.164 Y-16.190
N126 G1 X-14.164 Y-48.570
N127 G1 X-14.164 Y-80.950
N128 G1 X17.585 Y-80.950
N129 G1 X17.585 Y-48.570
N130 G1 X17.585 Y-16.190
N131 G1 X17.585 Y16.190
N132 G1 X17.585 Y48.570
N133 G1 X17.585 Y80.950
N134 G1 X49.333 Y80.950
N135 G1 X49.333 Y48.570
N136 G1 X49.333 Y16.190
N137 G1 X49.333 Y-16.190
N138 G1 X49.333 Y-48.570
N139 G1 X49.333 Y-80.950
N140 (Layer 4)
N141 /0 M34 S4200
N142 G0 X49.333 Y-80.950 Z10.000
N143 G1 X49.333 Y-48.570
N144 G1 X49.333 Y-16.190
N145 G1 X49.333 Y16.190
N146 G1 X49.333 Y48.570
N147 G1 X49.333 Y80.950
N148 /0 M34 S3500
N149 G1 X17.585 Y80.950
N150 G1 X17.585 Y48.570
N151 G1 X17.585 Y16.190
N152 G1 X17.585 Y-16.190
N153 G1 X17.585 Y-48.570
N154 G1 X17.585 Y-80.950
N155 G1 X-14.164 Y-80.950
N156 G1 X-14.164 Y-48.570
N157 G1 X-14.164 Y-16.190
N158 G1 X-14.164 Y16.190
N159 G1 X-14.164 Y48.570
N160 G1 X-14.164 Y80.950
N161 G1 X-45.913 Y80.950
N162 G1 X-45.913 Y48.570
N163 G1 X-45.913 Y16.190
N164 G1 X-45.913 Y-16.190
N165 G1 X-45.913 Y-48.570
N166 G1 X-45.913 Y-80.950
N167 (Layer 5)
N168 /0 M34 S4200
N169 G0 X-45.913 Y-80.950 Z12.000
N170 G1 X-45.913 Y-48.570
N171 G1 X-45.913 Y-16.190
N172 G1 X-45.913 Y16.190
N173 G1 X-45.913 Y48.570
N174 G1 X-45.913 Y80.950
N175 /0 M34 S3500
N176 G1 X-14.164 Y80.950
N177 G1 X-14.164 Y48.570
N178 G1 X-14.164 Y16.190
N179 G1 X-14.164 Y-16.190
N180 G1 X-14.164 Y-48.570
N181 G1 X-14.164 Y-80.950
N182 G1 X17.585 Y-80.950
N183 G1 X17.585 Y-48.570
N184 G1 X17.585 Y-16.190
N185 G1 X17.585 Y16.190
N186 G1 X17.585 Y48.570
N187 G1 X17.585 Y80.950
N188 G1 X49.333 Y80.950
N189 G1 X49.333 Y48.570
N190 G1 X49.333 Y16.190
N191 G1 X49.333 Y-16.190
N192 G1 X49.333 Y-48.570
N193 G1 X49.333 Y-80.950
N194 (Layer 6)
N195 /0 M34 S4200
N196 G0 X49.333 Y-80.950 Z14.000
N197 G1 X49.333 Y-48.570
N198 G1 X49.333 Y-16.190
N199 G1 X49.333 Y16.190
N200 G1 X49.333 Y48.570
N201 G1 X49.333 Y80.950
N202 /0 M34 S3500
N203 G1 X17.585 Y80.950
N204 G1 X17.585 Y48.570
N205 G1 X17.585 Y16.190
N206 G1 X17.585 Y-16.190
N207 G1 X17.585 Y-48.570
N208 G1 X17.585 Y-80.950
N209 G1 X-14.164 Y-80.950
N210 G1 X-14.164 Y-48.570
N211 G1 X-14.164 Y-16.190
N212 G1 X-14.164 Y16.190
N213 G1 X-14.164 Y48.570
N214 G1 X-14.164 Y80.950
N215 G1 X-45.913 Y80.950
N216 G1 X-45.913 Y48.570
N217 G1 X-45.913 Y16.190
N218 G1 X-45.913 Y-16.190
N219 G1 X-45.913 Y-48.570
N220 G1 X-45.913 Y-80.950
N221 (Layer 7)
N222 /0 M34 S4200
N223 G0 X-45.913 Y-80.950 Z16.000
N224 G1 X-45.913 Y-48.570
N225 G1 X-45.913 Y-16.190
N226 G1 X-45.913 Y16.190
N227 G1 X-45.913 Y48.570
N228 G1 X-45.913 Y80.950
N229 /0 M34 S3500
N230 G1 X-14.164 Y80.950
N231 G1 X-14.164 Y48.570
N232 G1 X-14.164 Y16.190
N233 G1 X-14.164 Y-16.190
N234 G1 X-14.164 Y-48.570
N235 G1 X-14.164 Y-80.950
N236 G1 X17.585 Y-80.950
N237 G1 X17.585 Y-48.570
N238 G1 X17.585 Y-16.190
N239 G1 X17.585 Y16.190
N240 G1 X17.585 Y48.570
N241 G1 X17.585 Y80.950
N242 G1 X49.333 Y80.950
N243 G1 X49.333 Y48.570
N244 G1 X49.333 Y16.190
N245 G1 X49.333 Y-16.190
N246 G1 X49.333 Y-48.570
N247 G1 X49.333 Y-80.950
N248 (Layer 8)
N249 /0 M34 S4200
N250 G0 X49.333 Y-80.950 Z18.000
N251 G1 X49.333 Y-48.570
N252 G1 X49.333 Y-16.190
N253 G1 X49.333 Y16.190
N254 G1 X49.333 Y48.570
N255 G1 X49.333 Y80.950
N256 /0 M34 S3500
N257 G1 X17.585 Y80.950
N258 G1 X17.585 Y48.570
N259 G1 X17.585 Y16.190
N260 G1 X17.585 Y-16.190
N261 G1 X17.585 Y-48.570
N262 G1 X17.585 Y-80.950
N263 G1 X-14.164 Y-80.950
N264 G1 X-14.164 Y-48.570
N265 G1 X-14.164 Y-16.190
N266 G1 X-14.164 Y16.190
N267 G1 X-14.164 Y48.570
N268 G1 X-14.164 Y80.950
N269 G1 X-45.913 Y80.950
N270 G1 X-45.913 Y48.570
N271 G1 X-45.913 Y16.190
N272 G1 X-45.913 Y-16.190
N273 G1 X-45.913 Y-48.570
N274 G1 X-45.913 Y-80.950
N275 (Layer 9)
N276 /0 M34 S4200
N277 G0 X-45.913 Y-80.950 Z20.000
N278 G1 X-45.913 Y-48.570
N279 G1 X-45.913 Y-16.190
N280 G1 X-45.913 Y16.190
N281 G1 X-45.913 Y48.570
N282 G1 X-45.913 Y80.950
N283 /0 M34 S3500
N284 G1 X-14.164 Y80.950
N285 G1 X-14.164 Y48.570
N286 G1 X-14.164 Y16.190
N287 G1 X-14.164 Y-16.190
N288 G1 X-14.164 Y-48.570
N289 G1 X-14.164 Y-80.950
N290 G1 X17.585 Y-80.950
N291 G1 X17.585 Y-48.570
N292 G1 X17.585 Y-16.190
N293 G1 X17.585 Y16.190
N294 G1 X17.585 Y48.570
N295 G1 X17.585 Y80.950
N296 G1 X49.333 Y80.950
N297 G1 X49.333 Y48.570
N298 G1 X49.333 Y16.190
N299 G1 X49.333 Y-16.190
N300 G1 X49.333 Y-48.570
N301 G1 X49.333 Y-80.950
N302 (END GCODE)
N303 
N304 (MACHINE-RUNNING SYNTAX N149,N150, N152, N154)
N305 M50 (SAVES CURRENT Z WORK COORDINATE TO SDAVED VARIABLE AND TO R50 PARAMETER)
N306 M51 (SAVES CURRENT X AND Y WORK COORDINATE TO SDAVED VARIABLE AND TO R51 AND R52 PARAMETERS)
N307 G91 G01 Z0.5 F150 (RELATIVE MODE, MOVE UP 0.5 INCH AT 100 IPM)
N308 /0 M35 (STOP CONTINUOUS FEED)
N309 G90 (RETURN TO ABSOLUTE MODE)
N310 G04 X0.5 (DWELL BEFORE M30)
N311 M30
N312 %
N313 