N1 (START GCODE - TEST SAMPLE)
N2 %TEST_SAMPLE (PROGRAM START)
N3 M60 (START CSV RECORDING)
N4 ( FEEDSTOCK MATERIAL: TEST ALUMINUM )
N5 (SUBSTRATE MATERIAL: TEST BASE)
N6 G54
N7 ( TOOL DATA : TEST_TOOL, SAMPLE TOOLPATH )
N8 G700
N9 G00 (INTERPOLATION MODE: LINEAR)
N10 G53 (DEACTIVATES ANY ZERO-OFFSET-SHIFT)
N11 G17 (SELECT XY-PLANE AS WORKING PLANE)
N12 
N13 (MACHINE-RUNNING SYNTAX)
N14 M34 S9500 (CONTINUOUS FEED START)
N15 M08 (Tool cooling on) 
N16 M40 S3 (Tool Temp PID) 
N17 M06 S200 (START SPINDLE)
N18 M40 S3 (TOOL TEMP PID) 
N19 M71 S45 (Kp X100) 
N20 M72 S11 (Tn X10) 
N21 M73 S3 (Tv X10) 
N22 M74 S70 (Td  X10) 
N23 M75 S300 (PID min rpm) 
N24 M76 S450 (PID max rpm) 
N25 M41 S475 (Set PID setpoint) 
N26 M43 S440 (Hold until temp is reached)  
N27 G54
N28 G90 (Absolute movement)
N29 G71
N30 
N31 (TOOLPATH COMMANDS START)
N32 G00 X0.000 Y0.000 Z2.000 F1000 (Move to start position)
N33 G01 Z0.500 F500 (Approach work surface)
N34 G01 X10.000 Y0.000 F800 (First line segment)
N35 G01 X10.000 Y5.000 F800 (Second line segment)
N36 G01 X0.000 Y5.000 F800 (Third line segment)
N37 G01 X0.000 Y10.000 F800 (Fourth line segment)
N38 G01 X10.000 Y10.000 F800 (Fifth line segment)
N39 G01 X10.000 Y15.000 F800 (Sixth line segment)
N40 G01 X0.000 Y15.000 F800 (Seventh line segment)
N41 G01 Z2.000 F500 (Retract from work surface)
N42 G00 X0.000 Y0.000 (Return to home)
N43 
N44 (COOLDOWN SEQUENCE)
N45 M09 (Tool cooling off)
N46 M05 (Spindle stop)
N47 M30 (Program end)
N48 (END GCODE)
%